X: 125
T:Muiñeira de Ourense
M:6/8
L:1/8
Q:200
C:Trad.
R:Muiñeira
K:C
CEG | cBc BAG |BGB GBG | BGB GBG| A2G CEG |
cBc BAG | BGB GBG |BAG FED |C3 :| |: EFG |AFA FAF | 
GEG EGE | FDF DFD |F2E/"F."c/ EFG | AFA FAF |GEG EGE |
FDF DFD C3 :||

